svgs/light/users-line.svg

<svg xmlns="http://www.w3.org/2000/svg" viewBox="0 0 640 512"><!--! Font Awesome Pro 6.4.2 by @fontawesome - https://fontawesome.com License - https://fontawesome.com/license (Commercial License) Copyright 2023 Fonticons, Inc. --><path d="M147.2 160a32 32 0 1 0 0-64 32 32 0 1 0 0 64zm0-96a64 64 0 1 1 0 128 64 64 0 1 1 0-128zm352 96a32 32 0 1 0 0-64 32 32 0 1 0 0 64zm0-96a64 64 0 1 1 0 128 64 64 0 1 1 0-128zM369.6 288h-96c-35.3 0-64 28.7-64 64h224c0-35.3-28.7-64-64-64zm-192 64c0-53 43-96 96-96h96c53 0 96 43 96 96c0 17.7-14.3 32-32 32h-224c-17.7 0-32-14.3-32-32zm144-160a48 48 0 1 0 0-96 48 48 0 1 0 0 96zm0-128a80 80 0 1 1 0 160 80 80 0 1 1 0-160zM64 288v16c0 8.8-7.2 16-16 16s-16-7.2-16-16V288c0-35.3 28.7-64 64-64h88c8.8 0 16 7.2 16 16s-7.2 16-16 16H96c-17.7 0-32 14.3-32 32zm480-32H456c-8.8 0-16-7.2-16-16s7.2-16 16-16h88c35.3 0 64 28.7 64 64v16c0 8.8-7.2 16-16 16s-16-7.2-16-16V288c0-17.7-14.3-32-32-32zM16 448H624c8.8 0 16 7.2 16 16s-7.2 16-16 16H16c-8.8 0-16-7.2-16-16s7.2-16 16-16z"/></svg>

<svg xmlns="http://www.w3.org/2000/svg" viewBox="0 0 640 512"><!--! Font Awesome Pro 6.1.1 by @fontawesome - https://fontawesome.com License - https://fontawesome.com/license (Commercial License) Copyright 2022 Fonticons, Inc. --><path d="M83.2 128C83.2 92.65 111.9 64 147.2 64C182.5 64 211.2 92.65 211.2 128C211.2 163.3 182.5 192 147.2 192C111.9 192 83.2 163.3 83.2 128V128zM147.2 160C164.9 160 179.2 145.7 179.2 128C179.2 110.3 164.9 96 147.2 96C129.5 96 115.2 110.3 115.2 128C115.2 145.7 129.5 160 147.2 160zM435.2 128C435.2 92.65 463.9 64 499.2 64C534.5 64 563.2 92.65 563.2 128C563.2 163.3 534.5 192 499.2 192C463.9 192 435.2 163.3 435.2 128V128zM499.2 160C516.9 160 531.2 145.7 531.2 128C531.2 110.3 516.9 96 499.2 96C481.5 96 467.2 110.3 467.2 128C467.2 145.7 481.5 160 499.2 160V160zM177.6 352C177.6 298.1 220.6 256 273.6 256H369.6C422.6 256 465.6 298.1 465.6 352C465.6 369.7 451.3 384 433.6 384H209.6C191.9 384 177.6 369.7 177.6 352V352zM273.6 288C238.3 288 209.6 316.7 209.6 352H433.6C433.6 316.7 404.9 288 369.6 288H273.6zM241.6 144C241.6 99.82 277.4 64 321.6 64C365.8 64 401.6 99.82 401.6 144C401.6 188.2 365.8 224 321.6 224C277.4 224 241.6 188.2 241.6 144V144zM321.6 192C348.1 192 369.6 170.5 369.6 144C369.6 117.5 348.1 96 321.6 96C295.1 96 273.6 117.5 273.6 144C273.6 170.5 295.1 192 321.6 192zM64 304C64 312.8 56.84 320 48 320C39.16 320 32 312.8 32 304V288C32 252.7 60.65 224 96 224H184C192.8 224 200 231.2 200 240C200 248.8 192.8 256 184 256H96C78.33 256 64 270.3 64 288V304zM456 256C447.2 256 440 248.8 440 240C440 231.2 447.2 224 456 224H544C579.3 224 608 252.7 608 288V304C608 312.8 600.8 320 592 320C583.2 320 576 312.8 576 304V288C576 270.3 561.7 256 544 256H456zM624 448C632.8 448 640 455.2 640 464C640 472.8 632.8 480 624 480H16C7.164 480 0 472.8 0 464C0 455.2 7.164 448 16 448H624z"/></svg>
